icons/networks/logos/twala.svg

<svg width="78" height="20" viewBox="0 0 78 20" fill="none" xmlns="http://www.w3.org/2000/svg">
<path fill-rule="evenodd" clip-rule="evenodd" d="M9.34567 5.51073L6.368 0.354454C6.34648 0.318755 6.3349 0.27795 6.33446 0.23627C6.33403 0.194589 6.34474 0.15355 6.36551 0.117407C6.38627 0.081264 6.41632 0.051332 6.45255 0.0307141C6.48877 0.0100962 6.52986 -0.000457132 6.57153 0.000148118H9.20998C9.2519 -0.00139568 9.29338 0.00915542 9.32947 0.0305423C9.36557 0.0519291 9.39474 0.0832485 9.41352 0.120763L11.072 3.01551C11.0941 3.05048 11.1058 3.09099 11.1058 3.13236C11.1058 3.17373 11.0941 3.21424 11.072 3.24921L9.75275 5.51073C9.7324 5.5468 9.70283 5.57682 9.66706 5.59771C9.6313 5.61859 9.59063 5.6296 9.54921 5.6296C9.50779 5.6296 9.46712 5.61859 9.43136 5.59771C9.39559 5.57682 9.36602 5.5468 9.34567 5.51073ZM14.3512 0.354306L15.6553 2.63845C15.6771 2.67176 15.7076 2.6985 15.7434 2.71577C15.7793 2.73304 15.8192 2.74019 15.8589 2.73644H18.4822C18.5239 2.73705 18.565 2.7265 18.6012 2.70588C18.6374 2.68526 18.6675 2.65533 18.6883 2.61919C18.709 2.58304 18.7197 2.542 18.7193 2.50032C18.7189 2.45864 18.7073 2.41784 18.6858 2.38214L17.3665 0.120615C17.3472 0.0867837 17.32 0.0581403 17.2871 0.0371351C17.2543 0.0161299 17.2169 0.0033882 17.1781 0H14.5396C14.4992 0.00199483 14.4601 0.0144386 14.4259 0.0361144C14.3918 0.0577903 14.3638 0.0879561 14.3448 0.123662C14.3258 0.159368 14.3164 0.199392 14.3176 0.23982C14.3187 0.280248 14.3302 0.319695 14.3512 0.354306ZM11.3358 8.95575L10.0166 6.69422C9.99466 6.65782 9.98306 6.61612 9.98306 6.57361C9.98306 6.5311 9.99466 6.4894 10.0166 6.45299L13.326 0.701182C13.3463 0.66511 13.3759 0.635094 13.4116 0.614207C13.4474 0.59332 13.4881 0.582313 13.5295 0.582313C13.5709 0.582313 13.6116 0.59332 13.6473 0.614207C13.6831 0.635094 13.7127 0.66511 13.733 0.701182L15.0523 2.96271C15.0744 2.99767 15.0861 3.03819 15.0861 3.07955C15.0861 3.12092 15.0744 3.16144 15.0523 3.1964L11.7429 8.93313C11.7246 8.97043 11.6968 9.00218 11.6621 9.02513C11.6275 9.04807 11.5874 9.06138 11.546 9.06368C11.5045 9.06599 11.4632 9.0572 11.4263 9.03823C11.3893 9.01926 11.3581 8.99079 11.3358 8.95575ZM15.1879 9.65709H12.5495C12.5072 9.6591 12.4651 9.64957 12.4278 9.62952C12.3905 9.60947 12.3593 9.57966 12.3377 9.54327C12.316 9.50688 12.3046 9.46528 12.3047 9.42292C12.3049 9.38057 12.3165 9.33904 12.3384 9.30279L15.6553 3.56605C15.6741 3.52854 15.7033 3.49722 15.7394 3.47583C15.7755 3.45445 15.8169 3.4439 15.8589 3.44544H18.4973C18.5392 3.44637 18.5801 3.45819 18.616 3.47974C18.652 3.50129 18.6817 3.53183 18.7022 3.56834C18.7228 3.60486 18.7334 3.6461 18.7332 3.688C18.7329 3.72989 18.7218 3.771 18.7008 3.80728L15.3915 9.53648C15.3708 9.57237 15.3412 9.60233 15.3055 9.62345C15.2699 9.64458 15.2294 9.65617 15.1879 9.65709ZM16.5298 9.6568H22.4776C22.5193 9.65741 22.5603 9.64686 22.5966 9.62624C22.6328 9.60562 22.6628 9.57569 22.6836 9.53955C22.7044 9.5034 22.7151 9.46236 22.7147 9.42068C22.7142 9.379 22.7026 9.3382 22.6811 9.3025L21.3619 7.04097C21.3444 6.99614 21.313 6.95806 21.2723 6.9323C21.2316 6.90654 21.1838 6.89443 21.1357 6.89774H17.849C17.8072 6.8971 17.7661 6.90802 17.7302 6.92931C17.6943 6.9506 17.6649 6.98142 17.6455 7.01836L16.3262 9.27988C16.2982 9.31569 16.2812 9.35889 16.2774 9.4042C16.2736 9.44951 16.283 9.49496 16.3046 9.53497C16.3262 9.57498 16.359 9.60782 16.399 9.62946C16.439 9.6511 16.4845 9.6606 16.5298 9.6568ZM15.7401 16.553C15.776 16.5743 15.8171 16.5852 15.8589 16.5846H18.4973C18.539 16.5852 18.5801 16.5747 18.6163 16.554C18.6525 16.5334 18.6826 16.5035 18.7033 16.4673C18.7241 16.4312 18.7348 16.3902 18.7344 16.3485C18.7339 16.3068 18.7224 16.266 18.7008 16.2303L15.3915 10.4936C15.3708 10.4577 15.3412 10.4277 15.3055 10.4066C15.2699 10.3855 15.2294 10.3739 15.1879 10.3729H12.5495C12.5072 10.3709 12.4651 10.3805 12.4278 10.4005C12.3905 10.4206 12.3593 10.4504 12.3377 10.4868C12.316 10.5232 12.3046 10.5648 12.3047 10.6071C12.3049 10.6495 12.3165 10.691 12.3384 10.7273L15.6553 16.464C15.6748 16.5009 15.7041 16.5317 15.7401 16.553ZM10.0166 13.5693L13.326 19.2985C13.3463 19.3345 13.3759 19.3645 13.4116 19.3854C13.4474 19.4063 13.4881 19.4173 13.5295 19.4173C13.5709 19.4173 13.6116 19.4063 13.6473 19.3854C13.6831 19.3645 13.7127 19.3345 13.733 19.2985L15.0523 17.0369C15.0744 17.002 15.0861 16.9614 15.0861 16.9201C15.0861 16.8787 15.0744 16.8382 15.0523 16.8032L11.7429 11.0665C11.7225 11.0304 11.693 11.0004 11.6572 10.9795C11.6214 10.9586 11.5808 10.9476 11.5394 10.9476C11.4979 10.9476 11.4573 10.9586 11.4215 10.9795C11.3857 11.0004 11.3562 11.0304 11.3358 11.0665L10.0166 13.328C9.99466 13.3644 9.98306 13.4061 9.98306 13.4486C9.98306 13.4911 9.99466 13.5329 10.0166 13.5693ZM17.2957 19.9661C17.26 19.9872 17.2195 19.9988 17.1781 19.9997H14.5396C14.4973 20.0017 14.4553 19.9922 14.418 19.9722C14.3806 19.9521 14.3495 19.9223 14.3278 19.8859C14.3061 19.8495 14.2947 19.8079 14.2949 19.7656C14.295 19.7232 14.3067 19.6817 14.3286 19.6454L15.6478 17.3839C15.6691 17.3469 15.6999 17.3163 15.737 17.2951C15.7741 17.2739 15.8162 17.2629 15.8589 17.2633H18.4973C18.539 17.2627 18.5801 17.2732 18.6163 17.2939C18.6525 17.3145 18.6826 17.3444 18.7033 17.3806C18.7241 17.4167 18.7348 17.4577 18.7344 17.4994C18.7339 17.5411 18.7224 17.5819 18.7008 17.6176L17.3816 19.8791C17.3609 19.915 17.3313 19.945 17.2957 19.9661ZM9.20998 19.9996H6.57153C6.52986 20.0002 6.48877 19.9896 6.45255 19.969C6.41632 19.9484 6.38627 19.9185 6.36551 19.8823C6.34474 19.8462 6.33403 19.8051 6.33446 19.7635C6.3349 19.7218 6.34648 19.681 6.368 19.6453L9.34567 14.5192C9.36602 14.4831 9.39559 14.4531 9.43136 14.4322C9.46712 14.4113 9.50779 14.4003 9.54921 14.4003C9.59063 14.4003 9.6313 14.4113 9.66706 14.4322C9.70283 14.4531 9.7324 14.4831 9.75275 14.5192L11.072 16.7807C11.0941 16.8156 11.1058 16.8562 11.1058 16.8975C11.1058 16.9389 11.0941 16.9794 11.072 17.0144L9.41352 19.879C9.39474 19.9165 9.36557 19.9478 9.32947 19.9692C9.29338 19.9906 9.2519 20.0011 9.20998 19.9996ZM5.77246 19.2982L8.7426 14.1495C8.76412 14.1138 8.77569 14.073 8.77613 14.0313C8.77657 13.9896 8.76585 13.9486 8.74509 13.9124C8.72433 13.8763 8.69427 13.8464 8.65805 13.8257C8.62182 13.8051 8.58074 13.7946 8.53906 13.7952H5.90061C5.86004 13.796 5.82028 13.8067 5.7848 13.8264C5.74932 13.8461 5.71921 13.8742 5.69708 13.9083L4.03863 16.7804C4.0201 16.8166 4.01044 16.8566 4.01044 16.8972C4.01044 16.9379 4.0201 16.9779 4.03863 17.0141L5.35785 19.2756C5.37719 19.3128 5.40589 19.3443 5.44111 19.367C5.47633 19.3897 5.51686 19.4029 5.55871 19.4051C5.60055 19.4074 5.64227 19.3988 5.67976 19.38C5.71724 19.3613 5.74919 19.3331 5.77246 19.2982ZM21.1357 13.1016H17.849C17.8083 13.1015 17.7682 13.091 17.7327 13.0713C17.6971 13.0515 17.6671 13.023 17.6454 12.9885L16.3262 10.727C16.3047 10.6913 16.2931 10.6505 16.2927 10.6088C16.2922 10.5671 16.303 10.5261 16.3237 10.49C16.3445 10.4538 16.3745 10.4239 16.4108 10.4033C16.447 10.3827 16.4881 10.3721 16.5298 10.3727H22.4549C22.4966 10.3721 22.5377 10.3827 22.5739 10.4033C22.6102 10.4239 22.6402 10.4538 22.661 10.49C22.6817 10.5261 22.6925 10.5671 22.692 10.6088C22.6916 10.6505 22.68 10.6913 22.6585 10.727L21.3393 12.9885C21.3176 13.023 21.2876 13.0515 21.252 13.0713C21.2164 13.091 21.1764 13.1015 21.1357 13.1016ZM9.20996 13.1019H2.59123C2.55066 13.1017 2.51083 13.091 2.47567 13.0707C2.4405 13.0505 2.41121 13.0214 2.39067 12.9865C2.37013 12.9515 2.35906 12.9117 2.35853 12.8712C2.35801 12.8306 2.36806 12.7906 2.3877 12.7551L3.70692 10.4936C3.7264 10.4566 3.75573 10.4258 3.79166 10.4045C3.82758 10.3832 3.8687 10.3723 3.91046 10.3729H10.5292C10.5715 10.3709 10.6136 10.3805 10.6509 10.4005C10.6882 10.4206 10.7193 10.4504 10.741 10.4868C10.7627 10.5232 10.7741 10.5648 10.7739 10.6071C10.7738 10.6495 10.7622 10.691 10.7403 10.7273L9.4135 12.9888C9.39301 13.0243 9.36325 13.0536 9.3274 13.0735C9.29155 13.0934 9.25095 13.1032 9.20996 13.1019ZM3.70691 9.53588L2.38769 7.27436C2.36617 7.23866 2.3546 7.19786 2.35416 7.15618C2.35372 7.1145 2.36444 7.07346 2.3852 7.03731C2.40596 7.00117 2.43602 6.97124 2.47224 6.95062C2.50847 6.93 2.54955 6.91945 2.59123 6.92005H9.20996C9.25267 6.91967 9.29472 6.93064 9.3318 6.95183C9.36889 6.97302 9.39968 7.00368 9.42103 7.04067L10.7403 9.30219C10.7622 9.33845 10.7738 9.37997 10.7739 9.42233C10.7741 9.46469 10.7627 9.50629 10.741 9.54268C10.7193 9.57907 10.6882 9.60888 10.6509 9.62893C10.6136 9.64898 10.5715 9.65851 10.5292 9.6565H3.91045C3.8687 9.65715 3.82758 9.64622 3.79165 9.62493C3.75573 9.60364 3.7264 9.57282 3.70691 9.53588ZM0.0281834 10.1169L1.37756 12.401C1.40176 12.4295 1.43222 12.4519 1.46655 12.4666C1.50089 12.4812 1.53816 12.4877 1.57542 12.4855C1.61269 12.4833 1.64894 12.4725 1.68132 12.4539C1.7137 12.4353 1.74132 12.4095 1.76202 12.3784L3.08124 10.1169C3.09977 10.0807 3.10943 10.0407 3.10943 10.0001C3.10943 9.95943 3.09977 9.91938 3.08124 9.88322L1.76202 7.62169C1.74064 7.58577 1.71029 7.55601 1.67395 7.53535C1.63761 7.51468 1.59652 7.50382 1.55471 7.50382C1.51291 7.50382 1.47182 7.51468 1.43547 7.53535C1.39913 7.55601 1.36878 7.58577 1.34741 7.62169L0.0281834 9.88322C0.00966008 9.91938 0 9.95943 0 10.0001C0 10.0407 0.00966008 10.0807 0.0281834 10.1169ZM5.69708 6.0911L4.03863 3.21896C4.0201 3.1828 4.01044 3.14275 4.01044 3.10212C4.01044 3.06149 4.0201 3.02144 4.03863 2.98527L5.35785 0.723748C5.37923 0.687821 5.40957 0.658066 5.44592 0.637401C5.48226 0.616736 5.52335 0.605871 5.56516 0.605871C5.60696 0.605871 5.64805 0.616736 5.68439 0.637401C5.72074 0.658066 5.75108 0.687821 5.77246 0.723748L8.7426 5.87249C8.76412 5.90819 8.77569 5.94899 8.77613 5.99067C8.77657 6.03235 8.76585 6.07339 8.74509 6.10953C8.72433 6.14568 8.69427 6.17561 8.65805 6.19623C8.62182 6.21684 8.58074 6.2274 8.53906 6.22679H5.90061C5.85787 6.22362 5.81668 6.20947 5.78102 6.18569C5.74536 6.16192 5.71644 6.12933 5.69708 6.0911ZM33.951 14.0063H32.7826C32.5835 14.0161 32.3844 13.985 32.1978 13.915C32.0111 13.845 31.8407 13.7375 31.6971 13.5993C31.5654 13.4554 31.4641 13.2865 31.3993 13.1025C31.3345 12.9186 31.3076 12.7234 31.3201 12.5288V8.83499H33.9134V6.78454H31.3051V4.30441H30.8151L27.0459 8.29223V8.86515H28.7646V12.8831C28.7398 13.3362 28.8072 13.7896 28.9627 14.2159C29.1182 14.6422 29.3585 15.0325 29.6692 15.3633C29.9958 15.6733 30.3821 15.9134 30.8047 16.069C31.2273 16.2245 31.6771 16.2922 32.1268 16.2679H33.951V14.0063ZM46.691 6.78457H49.2314L46.1256 16.2905H44.0676L41.9191 11.383L39.8235 16.2905H37.7579L34.622 6.78457H37.2227L39.0922 12.4308L41.5573 6.85242H42.3111L44.8516 12.4459L46.691 6.78457ZM60.0641 6.78504H58.1494L57.8554 7.70472C57.0044 6.93856 55.8945 6.52368 54.7496 6.54381C53.8581 6.53261 52.9793 6.7562 52.2016 7.19211C51.4534 7.61328 50.8373 8.23455 50.4225 8.98626C49.9899 9.76498 49.769 10.6435 49.7817 11.5342C49.7684 12.4413 49.9947 13.3358 50.4376 14.1275C50.85 14.8829 51.4665 15.5072 52.2167 15.9291C52.9925 16.3707 53.8721 16.5971 54.7646 16.585C55.9018 16.5994 57.0026 16.1849 57.8479 15.4241L58.074 16.2684H60.0641V6.78504ZM54.4521 14.1087C53.9456 14.0051 53.4819 13.7516 53.1213 13.3812V13.3887C52.8771 13.1479 52.6845 12.86 52.5549 12.5426C52.4253 12.2251 52.3615 11.8846 52.3674 11.5418C52.3592 11.1975 52.4218 10.8552 52.5515 10.5362C52.6812 10.2171 52.8751 9.92819 53.1213 9.68733C53.3602 9.44067 53.6477 9.2463 53.9656 9.11653C54.2835 8.98677 54.6249 8.92444 54.9682 8.93349C55.3113 8.92398 55.6526 8.98493 55.9712 9.11256C56.2898 9.24019 56.5788 9.4318 56.8205 9.67554C57.0621 9.91928 57.2512 10.21 57.376 10.5297C57.5009 10.8494 57.5588 11.1913 57.5463 11.5342C57.5561 12.0511 57.4102 12.559 57.1276 12.992C56.845 13.4249 56.4388 13.7629 55.9617 13.962C55.4846 14.1612 54.9586 14.2123 54.4521 14.1087ZM62.5217 16.2905V3.39229H65.0848V16.2905H62.5217ZM77.1838 6.78447H75.2615L74.9902 7.73431C74.1373 6.96635 73.0243 6.55135 71.8768 6.57339C70.9877 6.5621 70.1113 6.78574 69.3363 7.2217C68.5861 7.6427 67.9676 8.26384 67.5497 9.01584C67.1171 9.79456 66.8962 10.6731 66.909 11.5638C66.8964 12.4593 67.1172 13.3427 67.5497 14.1269C67.9652 14.8826 68.5841 15.5068 69.3363 15.9286C70.1094 16.3702 70.9866 16.5967 71.8768 16.5844C73.0087 16.595 74.1035 16.1808 74.9449 15.4235L75.1711 16.2678H77.1838V6.78447ZM72.0841 14.1193C71.3976 14.1193 70.7374 13.8548 70.241 13.3806V13.3881C69.9944 13.1444 69.8003 12.8528 69.6707 12.5313C69.541 12.2098 69.4786 11.8652 69.4871 11.5186C69.4793 11.1744 69.5422 10.8322 69.6718 10.5132C69.8015 10.1943 69.9952 9.90528 70.241 9.66414C70.4781 9.41731 70.7643 9.22276 71.081 9.09294C71.3978 8.96313 71.7381 8.90092 72.0803 8.9103C72.4235 8.90171 72.7648 8.96425 73.0827 9.09399C73.4005 9.22373 73.6881 9.41785 73.9272 9.66414C74.1736 9.90642 74.3676 10.1967 74.4973 10.517C74.6269 10.8372 74.6895 11.1807 74.6811 11.5261C74.6894 11.8704 74.6267 12.2127 74.497 12.5317C74.3673 12.8508 74.1734 13.1397 73.9272 13.3806C73.4308 13.8548 72.7706 14.1193 72.0841 14.1193Z" fill="#7A13CE"/>
</svg>

<svg viewBox="0 0 78 20" fill="none" xmlns="http://www.w3.org/2000/svg">
  <path fill-rule="evenodd" clip-rule="evenodd" d="M9.346 5.51 6.368.355A.234.234 0 0 1 6.572 0H9.21a.219.219 0 0 1 .204.12l1.658 2.896a.219.219 0 0 1 0 .233l-1.32 2.262a.234.234 0 0 1-.406 0ZM14.35.355l1.304 2.284a.22.22 0 0 0 .204.098h2.623a.234.234 0 0 0 .204-.354L17.366.121A.24.24 0 0 0 17.178 0H14.54a.234.234 0 0 0-.189.354Zm-3.015 8.602-1.32-2.262a.234.234 0 0 1 0-.241l3.31-5.752a.234.234 0 0 1 .407 0l1.32 2.262a.219.219 0 0 1 0 .233l-3.31 5.737a.233.233 0 0 1-.407.023Zm3.852.701h-2.639a.234.234 0 0 1-.21-.354l3.316-5.737a.219.219 0 0 1 .204-.12h2.638a.241.241 0 0 1 .204.361l-3.31 5.73a.24.24 0 0 1-.203.12Zm1.342 0h5.948a.234.234 0 0 0 .203-.354l-1.32-2.262a.226.226 0 0 0-.225-.143h-3.287a.226.226 0 0 0-.204.12L16.326 9.28a.234.234 0 0 0 .204.377Zm-.79 6.896a.226.226 0 0 0 .119.032h2.638a.233.233 0 0 0 .204-.355l-3.31-5.736a.24.24 0 0 0-.203-.121h-2.639a.234.234 0 0 0-.21.354l3.316 5.737c.02.037.05.068.085.089Zm-5.723-2.984 3.309 5.73a.234.234 0 0 0 .407 0l1.32-2.262a.219.219 0 0 0 0-.234l-3.31-5.737a.234.234 0 0 0-.407 0l-1.32 2.262a.234.234 0 0 0 0 .241Zm7.279 6.397a.242.242 0 0 1-.118.034H14.54a.234.234 0 0 1-.211-.355l1.319-2.261a.24.24 0 0 1 .21-.12h2.64a.233.233 0 0 1 .203.354l-1.32 2.261a.241.241 0 0 1-.085.087ZM9.21 20H6.572a.234.234 0 0 1-.204-.355l2.978-5.126a.234.234 0 0 1 .407 0l1.319 2.262a.219.219 0 0 1 0 .233L9.414 19.88a.219.219 0 0 1-.204.12Zm-3.438-.702 2.97-5.148a.234.234 0 0 0-.203-.355H5.901a.249.249 0 0 0-.204.113L4.04 16.78a.256.256 0 0 0 0 .234l1.319 2.262a.241.241 0 0 0 .414.022Zm15.364-6.196h-3.287a.241.241 0 0 1-.204-.114l-1.319-2.261a.233.233 0 0 1 .204-.354h5.925a.234.234 0 0 1 .204.354l-1.32 2.261a.242.242 0 0 1-.203.114Zm-11.926 0H2.591a.233.233 0 0 1-.203-.347l1.319-2.261a.226.226 0 0 1 .203-.121h6.62a.234.234 0 0 1 .21.354L9.414 12.99a.226.226 0 0 1-.204.113ZM3.707 9.536l-1.32-2.262a.234.234 0 0 1 .204-.354H9.21a.241.241 0 0 1 .211.12l1.32 2.262a.233.233 0 0 1-.212.354H3.91a.226.226 0 0 1-.203-.12Zm-3.679.58 1.35 2.285a.241.241 0 0 0 .384-.023l1.32-2.261a.256.256 0 0 0 0-.234l-1.32-2.261a.241.241 0 0 0-.415 0L.028 9.883a.256.256 0 0 0 0 .234Zm5.67-4.025L4.037 3.22a.256.256 0 0 1 0-.234L5.359.724a.241.241 0 0 1 .414 0l2.97 5.148a.234.234 0 0 1-.203.355H5.901a.249.249 0 0 1-.204-.136Zm28.253 7.915h-1.168a1.46 1.46 0 0 1-1.086-.407 1.448 1.448 0 0 1-.377-1.07V8.835h2.593v-2.05h-2.608v-2.48h-.49l-3.77 3.987v.573h1.72v4.018a3.354 3.354 0 0 0 .904 2.48 3.311 3.311 0 0 0 2.458.905h1.824v-2.262Zm12.74-7.221h2.54l-3.105 9.506h-2.058l-2.149-4.908-2.095 4.908h-2.066l-3.136-9.506h2.6l1.87 5.646 2.465-5.579h.754l2.54 5.594 1.84-5.661Zm13.373 0H58.15l-.294.92a4.523 4.523 0 0 0-3.105-1.161 5.08 5.08 0 0 0-2.548.648 4.62 4.62 0 0 0-1.78 1.794 5.097 5.097 0 0 0-.64 2.548 5.157 5.157 0 0 0 .656 2.593 4.59 4.59 0 0 0 1.779 1.802 5.013 5.013 0 0 0 2.548.656 4.523 4.523 0 0 0 3.083-1.16l.226.843h1.99V6.785Zm-5.612 7.324a2.579 2.579 0 0 1-1.33-.728v.008a2.533 2.533 0 0 1-.755-1.847 2.511 2.511 0 0 1 .754-1.855 2.48 2.48 0 0 1 1.847-.754 2.51 2.51 0 0 1 2.578 2.601 2.578 2.578 0 0 1-3.094 2.575Zm8.07 2.182V3.392h2.563v12.899h-2.563Zm14.662-9.507h-1.922l-.272.95a4.523 4.523 0 0 0-3.113-1.16 5.051 5.051 0 0 0-2.54.648 4.644 4.644 0 0 0-1.787 1.794 5.096 5.096 0 0 0-.641 2.548 5.157 5.157 0 0 0 .64 2.563 4.615 4.615 0 0 0 1.787 1.802c.773.441 1.65.668 2.54.655a4.523 4.523 0 0 0 3.069-1.16l.226.844h2.013V6.784Zm-5.1 7.335a2.668 2.668 0 0 1-1.843-.738v.007a2.54 2.54 0 0 1-.754-1.87 2.52 2.52 0 0 1 .754-1.854 2.457 2.457 0 0 1 1.84-.754 2.488 2.488 0 0 1 1.846.754 2.525 2.525 0 0 1 .754 1.862 2.51 2.51 0 0 1-.754 1.855 2.668 2.668 0 0 1-1.843.738Z" fill="#7A13CE"/>
</svg>
